src/status/16/riot-tray.svg

<svg xmlns="http://www.w3.org/2000/svg" width="16" height="16" version="1.1">
 <defs>
  <style id="current-color-scheme" type="text/css">
   .ColorScheme-Text { color:#ffffff; } .ColorScheme-Highlight { color:#4285f4; }
  </style>
 </defs>
 <path style="opacity:0.3;fill:currentColor" class="ColorScheme-Text" d="M 3.4628906 0 C 4.2627823 -0.010607 5.0544257 0.3626686 5.546875 1.0664062 C 5.7476351 1.3532772 5.8800861 1.672901 5.9472656 2.0058594 L 7.6796875 2.0058594 C 9.7725131 2.0058594 11.470703 3.401312 11.470703 5.4941406 C 11.470703 6.4334575 11.123355 7.2273887 10.554688 7.8203125 A 2.50025 2.50025 0 0 1 10.748047 8.0664062 L 11.544922 9.2050781 C 12.443986 8.2313757 13 6.9388703 13 5.5117188 C 13 2.4875472 10.537566 0.03515625 7.5 0.03515625 L 3.9042969 0.03515625 C 3.7584908 0.01051505 3.6107762 -0.0013531 3.4628906 0 z M 1.0039062 2.5195312 L 1 2.5234375 L 1 2.5585938 C 0.9997244 2.5456247 1.0039763 2.5325192 1.0039062 2.5195312 z M 1 2.5585938 L 1 12.474609 C 0.952187 15.840508 6.047813 15.840508 6 12.474609 L 6 10.986328 L 6.6796875 10.986328 L 6.6308594 10.916016 C 6.6065592 10.882238 6.5927913 10.843366 6.5703125 10.808594 A 2.50025 2.50025 0 0 1 6.5039062 10.693359 C 6.2079328 10.176922 6.0917591 9.5744694 6.2050781 8.984375 L 3.7929688 8.984375 L 3.7929688 12.671875 C 3.8005987 13.211295 2.9865106 13.211295 2.9941406 12.671875 L 2.9941406 4.9414062 C 2.3919074 4.8163184 1.8329559 4.4763935 1.453125 3.9335938 C 1.165949 3.5232409 1.0103989 3.0480133 1 2.5585938 z M 5.9707031 2.8027344 C 5.9653131 2.8464464 5.9686475 2.8898904 5.9609375 2.9335938 C 5.8449374 3.5915783 5.4803841 4.1656694 4.9335938 4.5488281 C 4.583077 4.7944383 4.190812 4.9264782 3.7929688 4.9726562 L 3.7929688 8.1855469 L 4.5898438 8.1855469 L 6.5039062 8.1855469 C 6.5152809 8.1662531 6.5507419 8.1510888 6.5683594 8.1328125 A 2.50025 2.50025 0 0 1 8.6152344 6.9707031 A 2.50025 2.50025 0 0 1 9.9453125 7.3183594 C 10.39741 6.8642529 10.671875 6.2445943 10.671875 5.4941406 C 10.671875 3.8324581 9.3413681 2.8027344 7.6796875 2.8027344 L 6.5839844 2.8027344 L 5.9707031 2.8027344 z M 6 4.0175781 L 7.5 4.0175781 C 8.375806 4.0175781 9 4.6397751 9 5.5117188 C 9 6.2389468 8.5605144 6.8176502 7.9082031 6.9824219 C 7.8936465 6.9747885 7.8725877 6.9750475 7.8632812 6.9609375 L 6 7.0039062 L 6 4.0175781 z"/>
 <path style="fill:currentColor" class="ColorScheme-Text" d="M 3.4550781 0 C 2.9735512 0.0078845193 2.4897443 0.15474079 2.0664062 0.45117188 C 1.5194675 0.83391652 1.1549232 1.4070732 1.0390625 2.0644531 C 0.92305429 2.7218331 1.0702235 3.3848833 1.453125 3.9316406 C 2.2436075 5.0605006 3.804692 5.3373576 4.9335938 4.546875 C 5.480384 4.1639822 5.8449292 3.5891688 5.9609375 2.9316406 C 6.076798 2.2745567 5.9297763 1.6131634 5.546875 1.0664062 C 5.0528235 0.36086896 4.257623 -0.013139881 3.4550781 0 z M 8.6152344 6.9707031 A 2.50025 2.50025 0 0 0 6.6523438 10.933594 L 8.7519531 13.933594 A 2.50025 2.50025 0 1 0 12.847656 11.066406 L 10.748047 8.0664062 A 2.50025 2.50025 0 0 0 8.6152344 6.9707031 z"/>
</svg>

<?xml version="1.0" encoding="UTF-8"?>
<svg width="16" height="16" version="1.1" xmlns="http://www.w3.org/2000/svg">
 <defs>
  <style id="current-color-scheme" type="text/css">.ColorScheme-Text { color:#ffffff; } .ColorScheme-Highlight { color:#4285f4; }</style>
 </defs>
 <path class="ColorScheme-Text" d="m3.4629 0c0.79989-0.010607 1.5915 0.36267 2.084 1.0664 0.20076 0.28687 0.33321 0.60649 0.40039 0.93945h1.7324c2.0928 0 3.791 1.3955 3.791 3.4883 0 0.93932-0.34735 1.7332-0.91602 2.3262a2.5002 2.5002 0 0 1 0.19336 0.24609l0.79688 1.1387c0.89906-0.9737 1.4551-2.2662 1.4551-3.6934 0-3.0242-2.4624-5.4766-5.5-5.4766h-3.5957c-0.14581-0.024641-0.29352-0.036509-0.44141-0.035156zm-2.459 2.5195-0.0039062 0.0039063v0.035156c-2.756e-4 -0.012969 0.0039763-0.026075 0.0039062-0.039063zm-0.0039062 0.039063v9.916c-0.047813 3.3659 5.0478 3.3659 5 0v-1.4883h0.67969l-0.048828-0.070312c-0.0243-0.033778-0.038068-0.07265-0.060547-0.10742a2.5002 2.5002 0 0 1-0.066406-0.11524c-0.29597-0.51644-0.41215-1.1189-0.29883-1.709h-2.4121v3.6875c0.0076299 0.53942-0.80646 0.53942-0.79883 0v-7.7305c-0.60223-0.12509-1.1612-0.46501-1.541-1.0078-0.28718-0.41035-0.44273-0.88558-0.45312-1.375zm4.9707 0.24414c-0.00539 0.043712-0.0020556 0.087156-0.0097656 0.13086-0.116 0.65798-0.48055 1.2321-1.0273 1.6152-0.35052 0.24561-0.74278 0.37765-1.1406 0.42383v3.2129h0.79688 1.9141c0.011375-0.019294 0.046836-0.034458 0.064453-0.052734a2.5002 2.5002 0 0 1 2.0469-1.1621 2.5002 2.5002 0 0 1 1.3301 0.34766c0.4521-0.45411 0.72656-1.0738 0.72656-1.8242 0-1.6617-1.3305-2.6914-2.9922-2.6914h-1.0957-0.61328zm0.029297 1.2148h1.5c0.87581 0 1.5 0.6222 1.5 1.4941 0 0.72723-0.43949 1.3059-1.0918 1.4707-0.014557-0.0076334-0.035615-0.0073744-0.044922-0.021484l-1.8633 0.042969v-2.9863z" fill="currentColor" opacity=".3"/>
 <path class="ColorScheme-Text" d="m3.4551 0c-0.48153 0.0078845-0.96533 0.15474-1.3887 0.45117-0.54694 0.38274-0.91148 0.9559-1.0273 1.6133-0.11601 0.65738 0.031161 1.3204 0.41406 1.8672 0.79048 1.1289 2.3516 1.4057 3.4805 0.61523 0.54679-0.38289 0.91134-0.95771 1.0273-1.6152 0.11586-0.65708-0.031161-1.3185-0.41406-1.8652-0.49405-0.70554-1.2893-1.0795-2.0918-1.0664zm5.1602 6.9707a2.5002 2.5002 0 0 0-1.9629 3.9629l2.0996 3a2.5002 2.5002 0 1 0 4.0957-2.8672l-2.0996-3a2.5002 2.5002 0 0 0-2.1328-1.0957z" fill="currentColor"/>
</svg>
